X: 15266
T: Girl Who Broke My Heart, The
R: reel
M: 4/4
K: Adorian
ed|:cAGE FD~D2|EAAG ABcd|efge dcAG|EGGF G2ed|
cAGE FD~D2|EAAG ABcd|efge dcAG|1 EAAG A2ed:|2 EAAG AEFG||
|:A2ce aecA|G2Bd gdBG|A2ce gdce|dcde dBGB|
A2ce aecA|G2Bd gdBG|ABce dcAG|1 EAAG AEFG:|2 EAAG A2||
K:Amix
ed|cA ~A2 FEDF|EAA^G ABcd|efge dcAG|EGGF G2 ed|
~c2 BA FD ~D2|EAA^G ABcd|efge dcAG|1 EAA^G A:|
A2 ce aecA|G2 Bd gdBG|A2 ce aece|dcde dB^GB|
A2 ce aecA|G2 BD gdBG|ABce dcAG|EAA^G A4:|

